X: 2
M: C|
L: 1/8
K: C
g4 e4 | dcBA G2AB | c2c2 d3d | e6 ee |
e2fg a2cc | c2de f2AA | BGe2 d3c- | c8 :|
d6 gg | a2e2 ef^ff | g2dc B2gg | a2e2 d3c- | c8 |]




